X:2393
L:1/8
M:4/4
K:D
 d2 fd Adfd | (3ddd fa gecA | d2 fd Adfd | eA (3Bcd egfe :| (3aaa ab afdf | a2 af gece | 
 (3aaa ab afdf | eA (3Bcd egfe | (3aaa ab afdf | a2 af gece | afge fdec | A2 (3Bcd egfe ||

